X:5019
T:The Bordermen
M:4/4
R:Polka
L:1/8
C:Aidan Crossey
K:G
|:G2GA BAGA|B2d2 d2B2|c2A2 AcBA|c2A2 AcBA|
G2GA BAGA|B2d2 d2B2|cBAG FEDF|A2G2 G4:||
|:d2dc BABd|g2g2 B4|dcBc AcBA|dcBc AcBA|
d2dc BABd|g2g2 B4|dcBc AcBA|G2B2 G4:||
